X:1
T: Lord John Scott
C:William Marshall
R:Reel
Q: 232
K:G
M:4/4
L:1/8
|:G2 Bd cB AG|ef gd cB AG|ce Ac Bd GB|cA BG GF ED|
G2 Bd cB AG|ef gd cB AG|ec dB cA BG|BA GF G2 G2:|
^cd cd ef ge|fa gf gf ed|^cA eA fA eA|af ge d^c BA|
^cd cd ef ge|fa gf gf ed|af ge fd e^c|Ad ^ce d2 d2|
G2 Bd cB AG|ef gd cB AG|ce Ac Bd GB|cA BG GF ED|
G2 Bd cB AG|ef gd cB AG|ec dB cA BG|BA GF G2 G2||
